X: 521
T: Myr-Hans Polska
S: efter Myr-Hans Nilsson
N: väldigt lik "DeGeers polska" från Uppland
R: Polska
O: Alfta, Hälsingland
Z: Håkan Lidén, 2008-09-27
M: 3/4
L: 1/8
K: G
"G" g/a/g/f/ gG B>d | "Am" dc/B/ c2 e2 | "D" c/d/c/B/ cD F>A | "G" cB/A/ B2 d2 | "G" g/a/g/f/ gG B>d | "C" de c2 e>g |
"G" fg G2 B>c | "Am" B>A "D" Af F>A | "D" AG/F/ "G" G4 :: "G" DG/B/ dB/G/ DG/B/ | "G" dc/B/ "Am" A2 c2 | "D" DF/A/ cA/F/ DF/A/ |
"G" cB/A/ G2 B2 | "G" DG/B/ dB/G/ DG/B/ | "G" de "C" c2 e>g | "G" fg G2 B>c | "Am" B>A "D" Af F>A | "D" AG/F/ "G" G4 :|
(:musicend:)

(:music:)
